src/images_karasa_jaga_svg/cmd/sc_insertslidetitlefield.svg

<svg enable-background="new 0 0 128 128" height="16" viewBox="0 0 16 16" width="16" xmlns="http://www.w3.org/2000/svg" xmlns:xlink="http://www.w3.org/1999/xlink"><linearGradient id="a" gradientTransform="matrix(.9792 0 0 .9725 155.00021 12.876196)" gradientUnits="userSpaceOnUse" x1="-147.02736" x2="-69.948441" y1="-31.445087" y2="23.263849"><stop offset="0" stop-color="#8dd8e4"/><stop offset=".04431298" stop-color="#a8e2f1"/><stop offset=".33793688" stop-color="#0a9dc4"/><stop offset=".73121971" stop-color="#00718c"/><stop offset="1" stop-color="#002b38"/></linearGradient><filter id="b" color-interpolation-filters="sRGB" height="1.132" width="1.11" x="-.055" y="-.066"><feGaussianBlur stdDeviation=".600459"/></filter><filter id="c" color-interpolation-filters="sRGB" height="1.0264" width="1.022" x="-.011" y="-.0132"><feGaussianBlur stdDeviation=".1200918"/></filter><filter id="d" color-interpolation-filters="sRGB" height="1.0528" width="1.044" x="-.022" y="-.0264"><feGaussianBlur stdDeviation=".2401836"/></filter><linearGradient id="e" gradientTransform="matrix(-.84615404 0 0 -.80489557 31.261552 507.595)" gradientUnits="userSpaceOnUse" x1="0" x2="31.942419" y1="294.88333" y2="274.79138"><stop offset="0" stop-color="#cccdcf"/><stop offset=".11366145" stop-color="#e0e0e1"/><stop offset=".20296694" stop-color="#f2f2f2"/><stop offset=".21468808" stop-color="#fafafa"/><stop offset=".21468808" stop-color="#fff"/><stop offset=".5313" stop-color="#fafafa"/><stop offset=".8449" stop-color="#ebecec"/><stop offset="1" stop-color="#e1e2e3"/></linearGradient><g transform="matrix(.47244094 0 0 .47244094 -.000001 -124.314953)"><path d="m2.4287318 271.26587h29.0092052v21.83486h-29.0092052z" fill="#a4a4a4" filter="url(#b)" transform="matrix(-1.09448 0 0 -1.09448 35.466532 588.91063)"/><path d="m1.8599554 271.26588h30.1467556v21.83486h-30.1467556z" fill="#949494" filter="url(#c)" transform="matrix(-1.0531812 0 0 -1.0531812 34.767212 577.25679)"/><path d="m1.7325692 271.26588h30.4015288v21.83486h-30.4015288z" fill="#313131" filter="url(#d)" transform="matrix(-1.0080161 0 0 -1.0080161 34.002412 564.51196)"/><path d="m31.750012 290.64996h-29.63334v-21.16664h29.63334z" fill="#f8f8f8" opacity=".99"/><path d="m28.575012 287.47496h-23.28334v-14.81666h23.28334z" fill="url(#e)" opacity=".99"/><g fill="#cacaca"><path d="m29.633342 288.5333h-1.05833v-16.93333h1.05833z"/><path d="m5.291682 288.5333h-1.05834v-16.93333h1.05834z"/><path d="m28.575002 287.47498v1.05833h-23.28333v-1.05833z"/><path d="m28.575002 271.59995v1.05833h-23.28333v-1.05833z"/></g></g><g transform="matrix(.125 0 0 .125 -.000001 .908938)"><rect fill="url(#a)" height="48" rx="11.636199" ry="9.974987" stroke-width=".9258" width="127.99816" x=".000008" y="-7.271504"/><path d="m8 .7285h112v32h-112z" fill="#e9e9e9" stroke-width=".815593"/><rect fill="#1450b3" height="16" rx=".135311" ry=".368394" stroke-width=".821731" width="80" x="24" y="8.7285"/></g></svg>

<?xml version="1.0" encoding="UTF-8" standalone="no"?>
<svg
   xmlns:dc="http://purl.org/dc/elements/1.1/"
   xmlns:cc="http://creativecommons.org/ns#"
   xmlns:rdf="http://www.w3.org/1999/02/22-rdf-syntax-ns#"
   xmlns:svg="http://www.w3.org/2000/svg"
   xmlns="http://www.w3.org/2000/svg"
   xmlns:sodipodi="http://sodipodi.sourceforge.net/DTD/sodipodi-0.dtd"
   xmlns:inkscape="http://www.inkscape.org/namespaces/inkscape"
   enable-background="new 0 0 128 128"
   height="128"
   viewBox="0 0 128 128"
   width="128"
   version="1.1"
   id="svg107"
   sodipodi:docname="sc_insertslidetitlefield.svg"
   inkscape:version="0.92.3 (unknown)"
   inkscape:export-filename="/home/rizmut/Dokumen/Rizmut/Github/libreoffice-style-karasa-jaga/build/images_karasa_jaga/cmd/sc_insertslidetitlefield.png"
   inkscape:export-xdpi="12"
   inkscape:export-ydpi="12">
  <metadata
     id="metadata113">
    <rdf:RDF>
      <cc:Work
         rdf:about="">
        <dc:format>image/svg+xml</dc:format>
        <dc:type
           rdf:resource="http://purl.org/dc/dcmitype/StillImage" />
        <dc:title></dc:title>
      </cc:Work>
    </rdf:RDF>
  </metadata>
  <defs
     id="defs111">
    <filter
       style="color-interpolation-filters:sRGB"
       id="c-3"
       height="1.132"
       width="1.11"
       x="-0.055"
       y="-0.066">
      <feGaussianBlur
         stdDeviation=".600459"
         id="feGaussianBlur22" />
    </filter>
    <filter
       style="color-interpolation-filters:sRGB"
       id="b-6"
       height="1.0264"
       width="1.022"
       x="-0.011"
       y="-0.0132">
      <feGaussianBlur
         stdDeviation=".1200918"
         id="feGaussianBlur19" />
    </filter>
    <filter
       style="color-interpolation-filters:sRGB"
       id="d-7"
       height="1.0528001"
       width="1.044"
       x="-0.022"
       y="-0.0264">
      <feGaussianBlur
         stdDeviation=".2401836"
         id="feGaussianBlur25" />
    </filter>
    <linearGradient
       id="a-5"
       gradientTransform="matrix(-0.84615404,0,0,-0.80489557,31.261552,507.595)"
       gradientUnits="userSpaceOnUse"
       x1="0"
       x2="31.942419"
       y1="294.88333"
       y2="274.79138">
      <stop
         offset="0"
         stop-color="#cccdcf"
         id="stop2-3" />
      <stop
         offset=".11366145"
         stop-color="#e0e0e1"
         id="stop4-5" />
      <stop
         offset=".20296694"
         stop-color="#f2f2f2"
         id="stop6" />
      <stop
         offset=".21468808"
         stop-color="#fafafa"
         id="stop8" />
      <stop
         offset=".21468808"
         stop-color="#fff"
         id="stop10" />
      <stop
         offset=".5313"
         stop-color="#fafafa"
         id="stop12" />
      <stop
         offset=".8449"
         stop-color="#ebecec"
         id="stop14" />
      <stop
         offset="1"
         stop-color="#e1e2e3"
         id="stop16" />
    </linearGradient>
    <linearGradient
       id="k"
       gradientTransform="matrix(1.0185733,0,0,0.82407071,-0.713472,13.082578)"
       gradientUnits="userSpaceOnUse"
       x1="3.587285"
       x2="107.14484"
       y1="4.73702"
       y2="79.217056">
      <stop
         offset="0"
         stop-color="#6fc5dd"
         id="stop82" />
      <stop
         offset="1"
         stop-color="#042f3a"
         stop-opacity=".894118"
         id="stop84" />
    </linearGradient>
  </defs>
  <sodipodi:namedview
     pagecolor="#ffffff"
     bordercolor="#666666"
     borderopacity="1"
     objecttolerance="10"
     gridtolerance="10"
     guidetolerance="10"
     inkscape:pageopacity="0"
     inkscape:pageshadow="2"
     inkscape:window-width="1366"
     inkscape:window-height="706"
     id="namedview109"
     showgrid="true"
     inkscape:snap-global="true"
     inkscape:zoom="1.84375"
     inkscape:cx="-31.512824"
     inkscape:cy="114.05793"
     inkscape:window-x="0"
     inkscape:window-y="0"
     inkscape:window-maximized="1"
     inkscape:current-layer="svg107">
    <inkscape:grid
       type="xygrid"
       id="grid920"
       spacingx="4"
       spacingy="4"
       empspacing="2" />
  </sodipodi:namedview>
  <linearGradient
     id="a"
     gradientUnits="userSpaceOnUse"
     x1="85.219681"
     x2="61.336319"
     y1="93.219681"
     y2="69.336319">
    <stop
       offset="0"
       id="stop2" />
    <stop
       offset="1"
       stop-color="#393b38"
       id="stop4" />
  </linearGradient>
  <linearGradient
     id="b"
     gradientUnits="userSpaceOnUse"
     x1="96"
     x2="88.0002"
     y1="104"
     y2="96.0002">
    <stop
       offset="0"
       stop-color="#888a85"
       id="stop7" />
    <stop
       offset=".0072"
       stop-color="#8c8e89"
       id="stop9" />
    <stop
       offset=".0673"
       stop-color="#abaca9"
       id="stop11" />
    <stop
       offset=".1347"
       stop-color="#c5c6c4"
       id="stop13" />
    <stop
       offset=".2115"
       stop-color="#dbdbda"
       id="stop15" />
    <stop
       offset=".3012"
       stop-color="#ebebeb"
       id="stop17" />
    <stop
       offset=".4122"
       stop-color="#f7f7f6"
       id="stop19" />
    <stop
       offset=".5679"
       stop-color="#fdfdfd"
       id="stop21" />
    <stop
       offset="1"
       stop-color="#fff"
       id="stop23" />
  </linearGradient>
  <radialGradient
     id="c"
     cx="102"
     cy="112.3047"
     gradientTransform="matrix(.9787234 0 0 .9818182 1.3617 1.163636)"
     gradientUnits="userSpaceOnUse"
     r="139.55859">
    <stop
       offset="0"
       stop-color="#535557"
       id="stop26" />
    <stop
       offset=".11366145"
       stop-color="#898a8c"
       id="stop28" />
    <stop
       offset=".20296688"
       stop-color="#ececec"
       id="stop30" />
    <stop
       offset=".2363"
       stop-color="#fafafa"
       id="stop32" />
    <stop
       offset=".2722"
       stop-color="#fff"
       id="stop34" />
    <stop
       offset=".5313"
       stop-color="#fafafa"
       id="stop36" />
    <stop
       offset=".8449"
       stop-color="#ebecec"
       id="stop38" />
    <stop
       offset="1"
       stop-color="#e1e2e3"
       id="stop40" />
  </radialGradient>
  <radialGradient
     id="d"
     cx="101.999998"
     cy="112.3047"
     gradientUnits="userSpaceOnUse"
     r="139.5585">
    <stop
       offset="0"
       stop-color="#00537d"
       id="stop43" />
    <stop
       offset=".0151"
       stop-color="#186389"
       id="stop45" />
    <stop
       offset=".0558"
       stop-color="#558ca8"
       id="stop47" />
    <stop
       offset=".0964"
       stop-color="#89afc3"
       id="stop49" />
    <stop
       offset=".1357"
       stop-color="#b3ccd8"
       id="stop51" />
    <stop
       offset=".1737"
       stop-color="#d4e2e9"
       id="stop53" />
    <stop
       offset=".2099"
       stop-color="#ecf2f5"
       id="stop55" />
    <stop
       offset=".2435"
       stop-color="#fafcfd"
       id="stop57" />
    <stop
       offset=".2722"
       stop-color="#fff"
       id="stop59" />
  </radialGradient>
  <filter
     id="e">
    <feGaussianBlur
       stdDeviation="1.0394514"
       id="feGaussianBlur62" />
  </filter>
  <filter
     id="f">
    <feGaussianBlur
       stdDeviation=".50063244"
       id="feGaussianBlur65" />
  </filter>
  <filter
     id="g">
    <feGaussianBlur
       stdDeviation=".4901192"
       id="feGaussianBlur68" />
  </filter>
  <filter
     id="h">
    <feGaussianBlur
       stdDeviation=".90565481"
       id="feGaussianBlur71" />
  </filter>
  <filter
     id="i"
     height="1.247155"
     width="1.247155"
     x="-.123577"
     y="-.123577">
    <feGaussianBlur
       stdDeviation="1.7720846"
       id="feGaussianBlur74" />
  </filter>
  <g
     transform="matrix(3.7795275,0,0,3.7795275,2.3384729e-8,-994.51962)"
     id="g50">
    <path
       style="fill:#a4a4a4;filter:url(#c-3)"
       inkscape:connector-curvature="0"
       d="M 2.4287318,271.26587 H 31.437937 v 21.83486 H 2.4287318 Z"
       transform="matrix(-1.09448,0,0,-1.09448,35.466532,588.91063)"
       id="path28" />
    <path
       style="fill:#949494;filter:url(#b-6)"
       inkscape:connector-curvature="0"
       d="M 1.8599554,271.26588 H 32.006711 v 21.83486 H 1.8599554 Z"
       transform="matrix(-1.0531812,0,0,-1.0531812,34.767212,577.25679)"
       id="path30" />
    <path
       style="fill:#313131;filter:url(#d-7)"
       inkscape:connector-curvature="0"
       d="M 1.7325692,271.26588 H 32.134098 v 21.83486 H 1.7325692 Z"
       transform="matrix(-1.0080161,0,0,-1.0080161,34.002412,564.51196)"
       id="path32" />
    <path
       style="opacity:0.98999999;fill:#f8f8f8"
       inkscape:connector-curvature="0"
       d="M 31.750012,290.64996 H 2.116672 v -21.16664 h 29.63334 z"
       id="path34" />
    <path
       style="opacity:0.98999999;fill:url(#a-5)"
       inkscape:connector-curvature="0"
       d="M 28.575012,287.47496 H 5.291672 V 272.6583 h 23.28334 z"
       id="path36" />
    <g
       style="fill:#cacaca"
       id="g48">
      <path
         inkscape:connector-curvature="0"
         d="m 29.633342,288.5333 h -1.05833 v -16.93333 h 1.05833 z"
         id="path38" />
      <path
         inkscape:connector-curvature="0"
         d="m 5.291682,288.5333 h -1.05834 v -16.93333 h 1.05834 z"
         id="path40" />
      <path
         inkscape:connector-curvature="0"
         d="m 28.575002,287.47498 v 1.05833 H 5.291672 v -1.05833 z"
         id="path42" />
      <path
         inkscape:connector-curvature="0"
         d="m 28.575002,271.59995 v 1.05833 H 5.291672 v -1.05833 z"
         id="path44" />
    </g>
  </g>
  <g
     id="g1647"
     transform="translate(0,7.2715001)">
    <rect
       id="rect1056"
       width="127.99816"
       ry="9.974987"
       rx="11.636199"
       height="48"
       style="fill:url(#k);stroke-width:0.92579967"
       x="0"
       y="-7.2715001" />
    <path
       id="path1058"
       d="m 8,0.7285 h 112 v 32 H 8 Z"
       style="fill:#e9e9e9;stroke-width:0.81559312"
       inkscape:connector-curvature="0"
       sodipodi:nodetypes="ccccc" />
    <rect
       id="rect1060"
       y="8.7285004"
       x="24"
       width="80"
       ry="0.36839446"
       rx="0.13531074"
       height="16"
       style="fill:#1450b3;stroke-width:0.82173139" />
  </g>
</svg>
